X:355
M:C|
L:1/8
K:D
gfed e2de|f2ed BdAd|F2D2D2:|
|:Bc|dcBA BcdB|edcB cdec|dcde defg|abag fgaf|gaba fgaf|
gfed e2de|f2ed BdAd|F2D2D2:|

